X:134
T: HIEZT HAB I MEIN TREUHEIT
N: E0723
O: Europa, Mitteleuropa, Oesterreich
R: Liebes - Lied, Leid, Klage
M: 3/4
L: 1/8
K: G
d2 | d2dBe2 | c2cA
F2 | A2ADB2 | G2
GABc | d2dBe2 | c2cA
F2 | A2ADB2 | G2z2

@@@ Tune index: 4447
